X: 60
T:Staten Island Hornpipe
M:2/4
L:1/16
Z:abc by Bruce Osborne - bosborne@kos.net
K:D
AG|FDFG A2Bc|defd A2Bc|d2GB A2FA|G2E2 E2AG|!
FDFG A2Bc|defd A2Bc|d2d2 efge|f2d2 d2:|!
|:fg|a2fa g2eg|f2df e2A2|dcdf edeg|fefa e2fg|!
a2fa g2eg|f2df e2A2|d2d2 efge|f2d2 d2:|!
